Printex-remake/img/icons/catalog_colored/07.svg

<svg width="98" height="98" viewBox="0 0 98 98" fill="none" xmlns="http://www.w3.org/2000/svg">
<path fill-rule="evenodd" clip-rule="evenodd" d="M71.0401 51.5126L54.3242 28.6523L43.5503 55.8256L36.8444 51.9539L20.1269 80.9094L37.6064 70.8169L37.6063 70.817L71.0401 51.5126Z" fill="#C4C4C4"/>
<circle r="7.05223" transform="matrix(0.86601 -0.500028 -3.18907e-05 1 29.5329 45.0669)" fill="#C4C4C4"/>
<path d="M83.6934 56.5642L66.9776 33.7039L56.2037 60.8771L49.4978 57.0055L32.7803 85.961L83.6934 56.5642Z" fill="#F2F2F2"/>
<path d="M83.6934 56.5642L66.9776 33.7039L56.2037 60.8771L49.4978 57.0055L32.7803 85.961" stroke="black"/>
<circle r="7.05223" transform="matrix(0.86601 -0.500028 -3.18907e-05 1 42.1862 50.1185)" fill="#F2F2F2"/>
<path d="M42.3495 57.3049C38.9759 59.2528 36.2411 57.6792 36.2412 53.7901C36.2413 49.9009 38.9763 45.1691 42.3499 43.2212" stroke="black"/>
<path d="M21.0612 42.3849L84.077 6L84.0754 56.4905L21.0596 92.8753L21.0612 42.3849Z" stroke="black" stroke-linejoin="bevel"/>
<circle r="2.09172" transform="matrix(0.86601 -0.500028 -3.18351e-05 1 25.7655 46.8383)" fill="black"/>
<path d="M17.2578 41.0737L26.4903 44.8753" stroke="black"/>
<path d="M15.0859 44.8752L24.8615 48.6768" stroke="black"/>
<circle r="2.09172" transform="matrix(0.86601 -0.500028 -3.18351e-05 1 80.0741 14.2533)" fill="black"/>
<path d="M71.5674 8.48853L80.7999 12.2901" stroke="black"/>
<path d="M69.3945 12.2903L79.1701 16.0919" stroke="black"/>
<circle r="2.09172" transform="matrix(0.86601 -0.500028 -3.18351e-05 1 24.6795 85.9406)" fill="black"/>
<path d="M16.1719 80.176L25.4043 83.9776" stroke="black"/>
<path d="M14 83.9775L23.7756 87.7791" stroke="black"/>
</svg>

<svg width="98" height="98" fill="none" xmlns="http://www.w3.org/2000/svg"><path fill-rule="evenodd" clip-rule="evenodd" d="M71.04 51.513l-16.716-22.86L43.55 55.825l-6.706-3.872-16.717 28.955 17.48-10.092L71.04 51.513z" fill="#C4C4C4"/><circle r="7.052" transform="matrix(.86601 -.50003 -.00003 1 29.533 45.067)" fill="#C4C4C4"/><path d="M83.693 56.564l-16.715-22.86-10.774 27.173-6.706-3.872L32.78 85.962l50.913-29.397z" fill="#F2F2F2"/><path d="M83.693 56.564l-16.715-22.86-10.774 27.173-6.706-3.872L32.78 85.962" stroke="#000"/><circle r="7.052" transform="matrix(.86601 -.50003 -.00003 1 42.186 50.118)" fill="#F2F2F2"/><path d="M42.35 57.305c-3.374 1.948-6.109.374-6.109-3.515 0-3.89 2.735-8.62 6.109-10.569" stroke="#000"/><path d="M21.061 42.385L84.077 6l-.002 50.49L21.06 92.875l.001-50.49z" stroke="#000" stroke-linejoin="bevel"/><circle r="2.092" transform="matrix(.86601 -.50003 -.00003 1 25.765 46.838)" fill="#000"/><path d="M17.258 41.074l9.232 3.801m-11.404 0l9.775 3.802" stroke="#000"/><circle r="2.092" transform="matrix(.86601 -.50003 -.00003 1 80.074 14.253)" fill="#000"/><path d="M71.567 8.489L80.8 12.29m-11.406 0l9.776 3.802" stroke="#000"/><circle r="2.092" transform="matrix(.86601 -.50003 -.00003 1 24.68 85.94)" fill="#000"/><path d="M16.172 80.176l9.232 3.802m-11.404 0l9.776 3.801" stroke="#000"/></svg>
